src/images/svg/career-2.svg

<svg width="120" height="120" viewBox="0 0 120 120" fill="none" xmlns="http://www.w3.org/2000/svg">
<circle cx="60.1596" cy="60.1775" r="58.5366" fill="white" stroke="#EFEFEF" stroke-width="2"/>
<ellipse cx="60" cy="60" rx="42" ry="42" fill="#FF444F"/>
<path d="M76.121 83H41.047V73.273L56.312 60.209C57.6847 59.0257 58.8443 57.9607 59.791 57.014C60.7377 56.02 61.495 55.0733 62.063 54.174C62.6783 53.2273 63.1043 52.3043 63.341 51.405C63.625 50.5057 63.767 49.5353 63.767 48.494V47.5C63.767 46.5533 63.5777 45.725 63.199 45.015C62.8203 44.305 62.3233 43.7133 61.708 43.24C61.0927 42.7667 60.3827 42.4117 59.578 42.175C58.8207 41.9383 58.0397 41.82 57.235 41.82C56.0517 41.82 55.0103 42.0093 54.111 42.388C53.259 42.7667 52.5017 43.2873 51.839 43.95C51.2237 44.5653 50.703 45.299 50.277 46.151C49.851 46.9557 49.5197 47.8313 49.283 48.778L39.982 45.228C40.55 43.524 41.331 41.9147 42.325 40.4C43.319 38.838 44.5497 37.489 46.017 36.353C47.5317 35.1697 49.3067 34.2467 51.342 33.584C53.3773 32.9213 55.673 32.59 58.229 32.59C60.927 32.59 63.3173 32.9687 65.4 33.726C67.4827 34.4833 69.234 35.5247 70.654 36.85C72.1213 38.1753 73.2337 39.761 73.991 41.607C74.7483 43.4057 75.127 45.37 75.127 47.5C75.127 49.63 74.772 51.5707 74.062 53.322C73.352 55.0733 72.3817 56.73 71.151 58.292C69.9677 59.8067 68.5713 61.2503 66.962 62.623C65.3527 63.9957 63.6723 65.392 61.921 66.812L52.691 74.054H76.121V83Z" fill="white"/>
</svg>

<svg width="120" height="120" fill="none" xmlns="http://www.w3.org/2000/svg"><circle cx="60.16" cy="60.178" r="58.537" fill="#fff" stroke="#EFEFEF" stroke-width="2"/><circle cx="60" cy="60" fill="#FF444F" r="42"/><path d="M76.121 83H41.047v-9.727l15.265-13.064a64.956 64.956 0 0 0 3.479-3.195c.947-.994 1.704-1.94 2.272-2.84.615-.947 1.041-1.87 1.278-2.769.284-.9.426-1.87.426-2.911V47.5c0-.947-.19-1.775-.568-2.485a5.435 5.435 0 0 0-1.491-1.775 6.432 6.432 0 0 0-2.13-1.065 7.808 7.808 0 0 0-2.343-.355c-1.183 0-2.225.19-3.124.568-.852.379-1.61.9-2.272 1.562a8.384 8.384 0 0 0-1.562 2.201c-.426.805-.757 1.68-.994 2.627l-9.301-3.55a20.692 20.692 0 0 1 2.343-4.828 15.828 15.828 0 0 1 3.692-4.047c1.515-1.183 3.29-2.106 5.325-2.769 2.035-.663 4.331-.994 6.887-.994 2.698 0 5.088.379 7.171 1.136 2.083.757 3.834 1.799 5.254 3.124a12.95 12.95 0 0 1 3.337 4.757c.757 1.799 1.136 3.763 1.136 5.893s-.355 4.07-1.065 5.822a20.39 20.39 0 0 1-2.911 4.97c-1.183 1.515-2.58 2.958-4.189 4.331a263.291 263.291 0 0 1-5.041 4.189l-9.23 7.242h23.43V83z" fill="#fff"/></svg>
